packages/kaspersky-hexa-ui-icons/src/iconsSVGs/24/Reports1.svg

<svg width="24" height="24" viewBox="0 0 24 24" fill="none" xmlns="http://www.w3.org/2000/svg">
<path d="M9 8C9 7.44772 8.55228 7 8 7C7.44772 7 7 7.44772 7 8V12C7 12.5523 7.44772 13 8 13C8.55228 13 9 12.5523 9 12V8Z" fill="black"/>
<path d="M17 8.5C17 7.94772 16.5523 7.5 16 7.5C15.4477 7.5 15 7.94772 15 8.5V12C15 12.5523 15.4477 13 16 13C16.5523 13 17 12.5523 17 12V8.5Z" fill="black"/>
<path d="M13 10C13 9.44772 12.5523 9 12 9C11.4477 9 11 9.44772 11 10V12C11 12.5523 11.4477 13 12 13C12.5523 13 13 12.5523 13 12V10Z" fill="black"/>
<path fill-rule="evenodd" clip-rule="evenodd" d="M6 3C4.34315 3 3 4.34315 3 6V14C3 15.6569 4.34315 17 6 17H8.99854V18.9901H8C7.44772 18.9901 7 19.4379 7 19.9901C7 20.5424 7.44772 20.9901 8 20.9901H16C16.5523 20.9901 17 20.5424 17 19.9901C17 19.4379 16.5523 18.9901 16 18.9901H15.0015V17H18C19.6569 17 21 15.6569 21 14V6C21 4.34315 19.6569 3 18 3H6ZM18 5H6C5.44772 5 5 5.44772 5 6V14C5 14.5523 5.44772 15 6 15H18C18.5523 15 19 14.5523 19 14V6C19 5.44772 18.5523 5 18 5ZM13.0015 17V18.9901H10.9985V17H13.0015Z" fill="black"/>
</svg>

<svg xmlns="http://www.w3.org/2000/svg" width="24" height="24" fill="none" viewBox="0 0 24 24"><path fill="#000" d="M9 8c0-.552-.448-1-1-1s-1 .448-1 1v4c0 .552.448 1 1 1s1-.448 1-1zm8 .5c0-.552-.448-1-1-1s-1 .448-1 1V12c0 .552.448 1 1 1s1-.448 1-1zM13 10c0-.552-.448-1-1-1s-1 .448-1 1v2c0 .552.448 1 1 1s1-.448 1-1z"/><path fill="#000" fill-rule="evenodd" d="M6 3C4.3431 3 3 4.3431 3 6v8c0 1.6569 1.3431 3 3 3h2.9985v1.9901H8c-.5523 0-1 .4478-1 1s.4477 1 1 1h8c.5523 0 1-.4477 1-1s-.4477-1-1-1h-.9985V17H18c1.6569 0 3-1.3431 3-3V6c0-1.6569-1.3431-3-3-3zm12 2H6c-.5523 0-1 .4477-1 1v8c0 .5523.4477 1 1 1h12c.5523 0 1-.4477 1-1V6c0-.5523-.4477-1-1-1m-4.9985 12v1.9901h-2.003V17z" clip-rule="evenodd"/></svg>
